X: 27998
T: Moving Bogs, The
R: reel
M: 4/4
K: Dmajor
FE|(D2F)A dDFA|dgfd ecA(c|dA)Ad BGED|CEA(F GF)EF|
D/D/(D F)A dDFA|dgfd ecA(c|dA)Ad BGED|1 CEA(G FD)DE:|2 CEA(G FD)Dc||
|:def(d fa)fd|gab(g ec)Ac|d/d/(d f)(d fa)fd|efg(e fd)ec|
def(d fa)fd|gab(g ec)A(c|dA)Ad BGED|1 CEA(G FD)Dc:|2 CEA(F GF)EF||

